svg/m/YT-UNF.svg

<svg fill="none" height="15" viewBox="0 0 20 15" width="20" xmlns="http://www.w3.org/2000/svg"><path d="m0 0h20v15h-20z" fill="#fff"/><path d="m6.93148 13.2681c-.41618.1258-1.01575.3836-1.25558.5283-.07759.0503-.07054.1069.04938.3207.08464.1384.16929.2579.1834.2579.02116 0 .25393-.0943.51493-.2138.26099-.1132.59447-.2626.7477-.2893.11719-.0205.22421-.0398.29045-.0644.02668.0578.01028.0256.05888.1163.06986.1304.02637.1274.14721.1631.1274.0376.44162-.1144.44162-.1144.3668-.1132.57136-.1258 1.89043-.1258 1.3191 0 1.5236.0126 1.8904.1321 0 0 .2952.0895.3331.1003.0377.0108.0576.0193.0975.0108.0363-.0078.0741-.0573.0909-.0873 0 0 .0811-.1737.1019-.2347.0703.0301.1984.0694.3218.104.1482.044.4797.1761.7407.2893.261.1195.4938.2138.5149.2138.0141 0 .0988-.1195.1834-.2579.1693-.2956.1834-.2704-.4303-.5534-.8182-.3774-1.6365-.5472-1.714-.3648-.0142.0346-.0261.0548-.0455.0997-.082-.0169-.2967-.062-.5118-.0934-.6631-.1069-2.48295-.1069-3.14601 0-.21514.0314-.36059.0839-.48214.114-.06882-.1228-.05441-.074-.06852-.1085-.05643-.1258-.42982-.1061-.94475.0574z" fill="#dfdfdf"/><path d="m7.53091 5.49562c-.01421.20495.02842.34992.13975.4599.04974.05248.09238.11497.09238.11497s-.05685.06248-.10422.10997c-.11133.10997-.15633.25244-.15633.4024 0 .15497.045.26244.1658.40241 0 0 .10197.05132.09948.11497-.00248.06365-.10895.12747-.10895.12747-.21792.25494-.21081.54737.01658.78982l.09711.10747h2.23129 2.2288l.109-.12247c.2108-.23744.2108-.49488.0024-.76732 0 0-.1049-.07481-.1066-.13747-.0017-.06265.0995-.12497.0995-.12497.2179-.27493.2131-.52737-.0119-.79231-.1018-.11747-.1042-.13997-.0237-.19495.1303-.09248.2108-.40491.1516-.59486-.0876-.28493-.4642-.47489-.694-.34992-.0426.02249-.1279.08498-.1918.13747-.064.05498-.1232.09747-.1351.09747-.0094 0-.0663-.04499-.1255-.09997-.2297-.20745-.5064-.23245-.7362.0025 0 0-.0327.12568-.081.12997-.0482.00428-.116-.11248-.116-.11248-.2345-.23244-.52824-.22244-.76747.0225 0 0-.03354.10232-.08763.08998-.0541-.01235-.09857-.13247-.09857-.13247-.13975-.13497-.22831-.13247-.38937-.13497-.09271-.00151-.26069.02105-.36213.09689-.10145.07585-.08354.1667-.10686.16055-.05862-.01546-.12317-.10997-.12317-.10997-.22739-.20496-.40977-.23995-.63005-.11748-.17292.09498-.26293.23495-.27714.4249z" fill="#171796"/><path d="m7.67803 9.05744s.0908.04422.08767.10087c-.00314.05666-.09952.11318-.09952.11318-.05449.0615-.11372.15007-.13268.19436-.07582.18944-.01895.44285.13032.58805.09003.091.0924.1279.0071.2361-.03791.0468-.08292.1132-.09951.1477-.1777.3493.08767.7872.48098.7872.15638 0 .27485-.0516.38147-.1697.0853-.0935.13031-.096.20613-.0123.11136.1279.25826.2066.38147.2066.14453 0 .23457-.0467.38147-.1919 0 0 .05822-.1137.11136-.1131s.10188.1156.10188.1156c.22035.246.44303.2534.73923.0197 0 0 .0651-.0947.1209-.0935.0557.0012.1042.0984.1042.0984.1303.1181.2275.1648.3554.1648.128 0 .2227-.0516.372-.2042 0 0 .0771-.1157.1232-.123.0462-.0073.0948.0886.0948.0886.1824.1698.2819.2239.4146.2239.1374 0 .2346-.0468.372-.1747.128-.1205.1967-.2608.1801-.3764-.0166-.1255-.1256-.3543-.2061-.433 0 0-.0808-.0071-.0688-.0689.0121-.0619.1067-.1255.1067-.1255.2322-.28292.2345-.50188.0047-.78235 0 0-.096-.05543-.0948-.11809.0012-.06267.0995-.12548.0995-.12548.2228-.27309.2204-.5265-.0047-.77498l-.1208-.1304-2.21776.00246-2.21773.00246-.09951.11563c-.2322.26817-.22984.54126.00473.81189z" fill="#d42e12"/><path clip-rule="evenodd" d="m11.1379 8.51343c.1073 0 .1967.07312.2152.16954l.0035.03715v.38427l.4597-.24407c.1018-.05402.2286-.01629.2832.08427.0486.08939.0239.19834-.0537.25938l-.0315.02052-.3854.20459.3854.20459.0315.02051c.0776.06105.1023.17.0537.25939-.0546.10053-.1814.13833-.2832.08427l-.4597-.24407v.42793c0 .1142-.0979.2067-.2187.2067-.1074 0-.1967-.0731-.2153-.1695l-.0035-.0372v-.37578l-.3615.19192c-.1017.05406-.2285.01626-.2832-.08427-.0486-.08939-.0238-.19834.0538-.25939l.0315-.02051.3853-.20459-.3853-.20459-.0315-.02052c-.0776-.06104-.1024-.16999-.0538-.25938.0547-.10056.1815-.13829.2832-.08427l.3615.19191v-.33211c0-.11415.0979-.20669.2188-.20669z" fill="#e9d315" fill-rule="evenodd"/><path clip-rule="evenodd" d="m9.01338 8.51343c.10739 0 .1967.07312.21522.16954l.00353.03715v.38427l.45972-.24407c.10175-.05402.22855-.01629.28321.08427.04854.08939.02382.19834-.05375.25938l-.03152.02052-.38535.20459.38535.20459.03152.02051c.07757.06105.10229.17.05375.25939-.05466.10053-.18146.13833-.28321.08427l-.45972-.24407v.42793c0 .1142-.09794.2067-.21875.2067-.10739 0-.1967-.0731-.21523-.1695l-.00352-.0372v-.37578l-.36148.19192c-.10175.05406-.22855.01626-.28321-.08427-.04859-.08939-.02382-.19834.05375-.25939l.03152-.02051.38535-.20459-.38535-.20459-.03152-.02052c-.07757-.06104-.10234-.16999-.05375-.25938.05466-.10056.18146-.13829.28321-.08427l.36148.19191v-.33211c0-.11415.09794-.20669.21875-.20669z" fill="#e9d315" fill-rule="evenodd"/><path d="m6.67677 4.375v3.66031h.2v.00001c0 .00068.00002.03217.00005.08879-.11356-.00348-.19818-.08683-.20002-.08864l-.00003-.00003v.00009.00036.00145.00573l.00002.02241.00004.08578.00021.31203.00089.99963c.00083.75848.00216 1.61388.00418 2.00558-.00456.1044.02635.1909.09025.2622.02654.0296.05558.0529.07732.0697.01228.0095.02126.0162.02956.0224.01076.0081.02036.0153.03448.0265l.12423-.1568-.12423.1568c.07516.0595.19111.0989.30221.1276.12116.0313.27197.0583.44282.0786.33983.0403.77107.0553 1.2282.0197.17479.0023.29767.0363.38825.0801.09226.0446.16111.1042.2221.1702.03124.0338.05942.0681.08956.105l.00277.0034c.02784.034.0597.073.09283.1076.06871.0718.17393.1585.32914.1585.1564 0 .2609-.0879.3286-.1614.0332-.036.0645-.0765.0916-.1113l.0007-.0009.001-.0014c.0285-.0366.0546-.0704.0837-.1038.0575-.0658.1214-.1241.2071-.1676.0848-.043.2017-.0769.3715-.0784.5131.0078.9527-.0046 1.2853-.0358.1662-.0156.3102-.0363.4253-.0629.1027-.0237.2169-.0592.2943-.1247l.004-.0033c.0043-.0035.0101-.0084.0169-.0143.0135-.0118.0318-.0287.0516-.049.0338-.0348.0943-.1026.1232-.1872.0239-.0701.0301-.1334.0304-.1798.0001-.0233-.0013-.043-.0029-.0579-.0002-.0021-.0004-.004-.0007-.0058v-3.31919-3.66031-.2h-.2-3.1232-3.12323-.2z" stroke="#000" stroke-width=".4"/><path d="m9.29295 6.16604c-.16776.31236-.17485.45252-.03544.70281.10869.19222.23628.31436.41113.39246.45606.20623 1.03966.05406 1.26886-.33039.1418-.23627.1252-.63073-.0307-.80293l-.0426-.04605-.0401.13616c-.0567.19422-.1134.29234-.2269.39646-.2126.19422-.5056.23827-.80805.11813-.23392-.09411-.32844-.22426-.41587-.58668l-.02126-.0901z" fill="#fff"/><path clip-rule="evenodd" d="m11.1306 2c0 .57729-.3563 1-.8574 1-.50112 0-.85433-.42271-.85433-1 0-.58044.35321-1 .85433-1 .5011 0 .8574.41956.8574 1zm-6.83173.96845v-1.347l.51019 1.347h.22339l.49812-1.347v1.347h.30188v-1.9369h-.35019l-.55849 1.48895-.56452-1.48895h-.35925v1.9369zm2.11622 0 .19019-.53627h.70944l.19019.53627h.32l-.71246-1.9369h-.30188l-.71246 1.9369zm.28982-.82018h.50717l-.25359-.71609zm2.01056.82018v-.77287l.67321-1.16403h-.33208l-.48905.8675-.49208-.8675h-.34113l.67019 1.16403v.77287zm1.55773-.26183c-.32603 0-.53735-.29653-.53735-.70662s.21132-.70662.53735-.70662c.326 0 .5404.29653.5404.70662s-.2144.70662-.5404.70662zm1.8777-1.38485v1.64668h-.3139v-1.64668h-.6159v-.29022h1.5457v.29022zm1.7268 1.64668v-1.64668h.6159v-.29022h-1.5457v.29022h.6159v1.64668zm2.1223-.29337v.29337h-1.2106v-1.9369h1.2106v.29022h-.9026v.51104h.8181v.28706h-.8181v.55521z" fill="#ff2500" fill-rule="evenodd"/><g stroke="#000"><path clip-rule="evenodd" d="m16.1103 11.75s-.2125-.4186.3249-.6252c.5375-.2066.8001.063 1.0369.3132.2367.2502.2107 1.0053.2107 1.0053l-.585.9356-1.7944.371-.7151-.371-.8383-1.6289.0626-1.5992s.0848-.61258.0848-.73939.3895-1.10966.3895-1.10966l.3688-.36536 1.0431-.5549.4912-.24533.6098-.77086-.0675-.61367-.695.88533h-.5887l-.6128.25672-.2475.23323-.3014.00925-.1181-.24248.3291-.52838.4971-.50044-.2287-.4232.3385-.15417-.0651-.23328.3756.23328.2835-.23328.054-.21455-.648-.34729s.634-.26605.9325-.23828c.2985.02776.5801.37898.5801.37898l.8547-.1407s-.2288.56184-.1549.56184h.5381l-.1725.69742h.6618l-.4893.53728.382.20945-.5812.39532.5812.39103-.5403.35492.3044.58858.4791-.29182.2695.36536-.4054.89969-.6618.46949-.6305.15886-.6171.16037-.2452.16064-.1527-.61558-1.0423.71488-.5415 1.1209.1594 1.0185.3821.5215.7038.252.9186-.1726.4804-.5845.1147-.5965s-.2783-.4051-.4802-.3714c-.2018.0336-.622.312-.622.312z" fill="#dfdfdf" fill-rule="evenodd" stroke-width=".3"/><g stroke-width=".2"><path d="m15.0542 7.762s1.1119.1031 1.4087-.1329"/><path d="m14.2176 8.48343s1.1119.10311 1.4087-.1329"/><path d="m14.0309 9.14534s.6.10087.6594-.10792"/></g></g><path clip-rule="evenodd" d="m15.4688 5.9375c-.0863 0-.1563-.06996-.1563-.15625s.07-.15625.1563-.15625c.0862 0 .1562.06996.1562.15625s-.07.15625-.1562.15625z" fill="#000" fill-rule="evenodd"/><g stroke="#000"><path clip-rule="evenodd" d="m3.8897 11.75s.21254-.4186-.32491-.6252c-.53744-.2066-.80013.063-1.03686.3132s-.21072 1.0053-.21072 1.0053l.58497.9356 1.79445.371.71502-.371.83835-1.6289-.06265-1.5992s-.08479-.61258-.08479-.73939-.38948-1.10966-.38948-1.10966l-.36881-.36536-1.04306-.5549-.49117-.24533-.60986-.77086.06748-.61367.69503.88533h.58872l.61282.25672.24742.23323.30143.00925.1181-.24248-.32908-.52838-.49706-.50044.22863-.4232-.33844-.15417.06511-.23328-.37565.23328-.28348-.23328-.05401-.21455.64803-.34729s-.63405-.26605-.93254-.23828c-.29849.02776-.5801.37898-.5801.37898l-.85466-.1407s.22881.56184.15486.56184c-.07394 0-.53812 0-.53812 0l.17254.69742h-.66182l.48928.53728-.38196.20945.58115.39532-.58115.39103.54034.35492-.30443.58858-.47913-.29182-.26949.36536.40539.89969.66182.46949.63049.15886.61709.16037.24525.16064.15265-.61558 1.04235.71488.54147 1.1209-.1594 1.0185-.38207.5215-.70383.252-.91862-.1726-.48041-.5845-.11472-.5965s.27834-.4051.4802-.3714c.20185.0336.62204.312.62204.312z" fill="#dfdfdf" fill-rule="evenodd" stroke-width=".3"/><path d="m4.94577 7.762s-1.11183.1031-1.4087-.1329" stroke-width=".2"/><path d="m5.78238 8.48343s-1.11183.10311-1.4087-.1329" stroke-width=".2"/><path d="m5.96908 9.14534s-.59999.10087-.65938-.10792" stroke-width=".2"/></g><path clip-rule="evenodd" d="m4.53125 5.9375c.08629 0 .15625-.06996.15625-.15625s-.06996-.15625-.15625-.15625-.15625.06996-.15625.15625.06996.15625.15625.15625z" fill="#000" fill-rule="evenodd"/></svg>

<svg width="20" height="15" viewBox="0 0 20 15" fill="none" xmlns="http://www.w3.org/2000/svg">
<rect width="20" height="15" fill="white"/>
<path d="M6.93148 13.2681C6.5153 13.3939 5.91573 13.6517 5.6759 13.7964C5.59831 13.8467 5.60536 13.9033 5.72528 14.1171C5.80992 14.2555 5.89457 14.375 5.90868 14.375C5.92984 14.375 6.16261 14.2807 6.42361 14.1612C6.6846 14.048 7.01808 13.8986 7.17131 13.8719C7.2885 13.8514 7.39552 13.8321 7.46176 13.8075C7.48844 13.8653 7.47204 13.8331 7.52064 13.9238C7.5905 14.0542 7.54701 14.0512 7.66785 14.0869C7.79525 14.1245 8.10947 13.9725 8.10947 13.9725C8.47627 13.8593 8.68083 13.8467 9.9999 13.8467C11.319 13.8467 11.5235 13.8593 11.8903 13.9788C11.8903 13.9788 12.1855 14.0683 12.2234 14.0791C12.2611 14.0899 12.281 14.0984 12.3209 14.0899C12.3572 14.0821 12.395 14.0326 12.4118 14.0026C12.4118 14.0026 12.4929 13.8289 12.5137 13.7679C12.584 13.798 12.7121 13.8373 12.8355 13.8719C12.9837 13.9159 13.3152 14.048 13.5762 14.1612C13.8372 14.2807 14.07 14.375 14.0911 14.375C14.1052 14.375 14.1899 14.2555 14.2745 14.1171C14.4438 13.8215 14.4579 13.8467 13.8442 13.5637C13.026 13.1863 12.2077 13.0165 12.1302 13.1989C12.116 13.2335 12.1041 13.2537 12.0847 13.2986C12.0027 13.2817 11.788 13.2366 11.5729 13.2052C10.9098 13.0983 9.08995 13.0983 8.42689 13.2052C8.21175 13.2366 8.0663 13.2891 7.94475 13.3192C7.87593 13.1964 7.89034 13.2452 7.87623 13.2107C7.8198 13.0849 7.44641 13.1046 6.93148 13.2681H6.93148Z" fill="#DFDFDF"/>
<path d="M7.53091 5.49562C7.5167 5.70057 7.55933 5.84554 7.67066 5.95552C7.7204 6.008 7.76304 6.07049 7.76304 6.07049C7.76304 6.07049 7.70619 6.13297 7.65882 6.18046C7.54749 6.29043 7.50249 6.4329 7.50249 6.58286C7.50249 6.73783 7.54749 6.8453 7.66829 6.98527C7.66829 6.98527 7.77026 7.03659 7.76777 7.10024C7.76529 7.16389 7.65882 7.22771 7.65882 7.22771C7.4409 7.48265 7.44801 7.77508 7.6754 8.01753L7.77251 8.125H10.0038H12.2326L12.3416 8.00253C12.5524 7.76509 12.5524 7.50765 12.344 7.23521C12.344 7.23521 12.2391 7.1604 12.2374 7.09774C12.2357 7.03509 12.3369 6.97277 12.3369 6.97277C12.5548 6.69784 12.55 6.4454 12.325 6.18046C12.2232 6.06299 12.2208 6.04049 12.3013 5.98551C12.4316 5.89303 12.5121 5.5806 12.4529 5.39065C12.3653 5.10572 11.9887 4.91576 11.7589 5.04073C11.7163 5.06322 11.631 5.12571 11.5671 5.1782C11.5031 5.23318 11.4439 5.27567 11.432 5.27567C11.4226 5.27567 11.3657 5.23068 11.3065 5.1757C11.0768 4.96825 10.8001 4.94325 10.5703 5.1782C10.5703 5.1782 10.5376 5.30388 10.4893 5.30817C10.4411 5.31245 10.3733 5.19569 10.3733 5.19569C10.1388 4.96325 9.84506 4.97325 9.60583 5.21819C9.60583 5.21819 9.57229 5.32051 9.5182 5.30817C9.4641 5.29582 9.41963 5.1757 9.41963 5.1757C9.27988 5.04073 9.19132 5.04323 9.03026 5.04073C8.93755 5.03922 8.76957 5.06178 8.66813 5.13762C8.56668 5.21347 8.58459 5.30432 8.56127 5.29817C8.50265 5.28271 8.4381 5.1882 8.4381 5.1882C8.21071 4.98324 8.02833 4.94825 7.80805 5.07072C7.63513 5.1657 7.54512 5.30567 7.53091 5.49562Z" fill="#171796"/>
<path d="M7.67803 9.05744C7.67803 9.05744 7.76883 9.10166 7.7657 9.15831C7.76256 9.21497 7.66618 9.27149 7.66618 9.27149C7.61169 9.33299 7.55246 9.42156 7.5335 9.46585C7.45768 9.65529 7.51455 9.9087 7.66382 10.0539C7.75385 10.1449 7.75622 10.1818 7.67092 10.29C7.63301 10.3368 7.588 10.4032 7.57141 10.4377C7.39371 10.787 7.65908 11.2249 8.05239 11.2249C8.20877 11.2249 8.32724 11.1733 8.43386 11.0552C8.51916 10.9617 8.56417 10.9592 8.63999 11.0429C8.75135 11.1708 8.89825 11.2495 9.02146 11.2495C9.16599 11.2495 9.25603 11.2028 9.40293 11.0576C9.40293 11.0576 9.46115 10.9439 9.51429 10.9445C9.56743 10.9451 9.61617 11.0601 9.61617 11.0601C9.83652 11.3061 10.0592 11.3135 10.3554 11.0798C10.3554 11.0798 10.4205 10.9851 10.4763 10.9863C10.532 10.9875 10.5805 11.0847 10.5805 11.0847C10.7108 11.2028 10.808 11.2495 10.9359 11.2495C11.0639 11.2495 11.1586 11.1979 11.3079 11.0453C11.3079 11.0453 11.385 10.9296 11.4311 10.9223C11.4773 10.915 11.5259 11.0109 11.5259 11.0109C11.7083 11.1807 11.8078 11.2348 11.9405 11.2348C12.0779 11.2348 12.1751 11.188 12.3125 11.0601C12.4405 10.9396 12.5092 10.7993 12.4926 10.6837C12.476 10.5582 12.367 10.3294 12.2865 10.2507C12.2865 10.2507 12.2057 10.2436 12.2177 10.1818C12.2298 10.1199 12.3244 10.0563 12.3244 10.0563C12.5566 9.77338 12.5589 9.55442 12.3291 9.27395C12.3291 9.27395 12.2331 9.21852 12.2343 9.15586C12.2355 9.09319 12.3338 9.03038 12.3338 9.03038C12.5566 8.75729 12.5542 8.50388 12.3291 8.2554L12.2083 8.125L9.99054 8.12746L7.77281 8.12992L7.6733 8.24555C7.4411 8.51372 7.44346 8.78681 7.67803 9.05744Z" fill="#D42E12"/>
<path fill-rule="evenodd" clip-rule="evenodd" d="M11.1379 8.51343C11.2452 8.51343 11.3346 8.58655 11.3531 8.68297L11.3566 8.72012V9.10439L11.8163 8.86032C11.9181 8.8063 12.0449 8.84403 12.0995 8.94459C12.1481 9.03398 12.1234 9.14293 12.0458 9.20397L12.0143 9.22449L11.6289 9.42908L12.0143 9.63367L12.0458 9.65418C12.1234 9.71523 12.1481 9.82418 12.0995 9.91357C12.0449 10.0141 11.9181 10.0519 11.8163 9.99784L11.3566 9.75377V10.1817C11.3566 10.2959 11.2587 10.3884 11.1379 10.3884C11.0305 10.3884 10.9412 10.3153 10.9226 10.2189L10.9191 10.1817V9.80592L10.5576 9.99784C10.4559 10.0519 10.3291 10.0141 10.2744 9.91357C10.2258 9.82418 10.2506 9.71523 10.3282 9.65418L10.3597 9.63367L10.745 9.42908L10.3597 9.22449L10.3282 9.20397C10.2506 9.14293 10.2258 9.03398 10.2744 8.94459C10.3291 8.84403 10.4559 8.8063 10.5576 8.86032L10.9191 9.05223V8.72012C10.9191 8.60597 11.017 8.51343 11.1379 8.51343Z" fill="#E9D315"/>
<path fill-rule="evenodd" clip-rule="evenodd" d="M9.01338 8.51343C9.12077 8.51343 9.21008 8.58655 9.2286 8.68297L9.23213 8.72012V9.10439L9.69185 8.86032C9.7936 8.8063 9.9204 8.84403 9.97506 8.94459C10.0236 9.03398 9.99888 9.14293 9.92131 9.20397L9.88979 9.22449L9.50444 9.42908L9.88979 9.63367L9.92131 9.65418C9.99888 9.71523 10.0236 9.82418 9.97506 9.91357C9.9204 10.0141 9.7936 10.0519 9.69185 9.99784L9.23213 9.75377V10.1817C9.23213 10.2959 9.13419 10.3884 9.01338 10.3884C8.90599 10.3884 8.81668 10.3153 8.79815 10.2189L8.79463 10.1817V9.80592L8.43315 9.99784C8.3314 10.0519 8.2046 10.0141 8.14994 9.91357C8.10135 9.82418 8.12612 9.71523 8.20369 9.65418L8.23521 9.63367L8.62056 9.42908L8.23521 9.22449L8.20369 9.20397C8.12612 9.14293 8.10135 9.03398 8.14994 8.94459C8.2046 8.84403 8.3314 8.8063 8.43315 8.86032L8.79463 9.05223V8.72012C8.79463 8.60597 8.89257 8.51343 9.01338 8.51343Z" fill="#E9D315"/>
<path d="M6.67677 4.375V8.03531H6.87677V8.03532C6.87677 8.036 6.87679 8.06749 6.87682 8.12411C6.76326 8.12063 6.67864 8.03728 6.6768 8.03547L6.67677 8.03544L6.67677 8.03553L6.67677 8.03589L6.67677 8.03734L6.67677 8.04307L6.67679 8.06548L6.67683 8.15126L6.67704 8.46329L6.67793 9.46292C6.67876 10.2214 6.68009 11.0768 6.68211 11.4685C6.67755 11.5729 6.70846 11.6594 6.77236 11.7307C6.7989 11.7603 6.82794 11.7836 6.84968 11.8004C6.86196 11.8099 6.87094 11.8166 6.87924 11.8228C6.89 11.8309 6.8996 11.8381 6.91372 11.8493L7.03795 11.6925L6.91372 11.8493C6.98888 11.9088 7.10483 11.9482 7.21593 11.9769C7.33709 12.0082 7.4879 12.0352 7.65875 12.0555C7.99858 12.0958 8.42982 12.1108 8.88695 12.0752C9.06174 12.0775 9.18462 12.1115 9.2752 12.1553C9.36746 12.1999 9.43631 12.2595 9.4973 12.3255C9.52854 12.3593 9.55672 12.3936 9.58686 12.4305L9.58963 12.4339C9.61747 12.4679 9.64933 12.5069 9.68246 12.5415C9.75117 12.6133 9.85639 12.7 10.0116 12.7C10.168 12.7 10.2725 12.6121 10.3402 12.5386C10.3734 12.5026 10.4047 12.4621 10.4318 12.4273L10.4325 12.4264L10.4335 12.425C10.462 12.3884 10.4881 12.3546 10.5172 12.3212C10.5747 12.2554 10.6386 12.1971 10.7243 12.1536C10.8091 12.1106 10.926 12.0767 11.0958 12.0752C11.6089 12.083 12.0485 12.0706 12.3811 12.0394C12.5473 12.0238 12.6913 12.0031 12.8064 11.9765C12.9091 11.9528 13.0233 11.9173 13.1007 11.8518L13.1047 11.8485C13.109 11.845 13.1148 11.8401 13.1216 11.8342C13.1351 11.8224 13.1534 11.8055 13.1732 11.7852C13.207 11.7504 13.2675 11.6826 13.2964 11.598C13.3203 11.5279 13.3265 11.4646 13.3268 11.4182C13.3269 11.3949 13.3255 11.3752 13.3239 11.3603C13.3237 11.3582 13.3235 11.3563 13.3232 11.3545V8.03531V4.375V4.175H13.1232H10H6.87677H6.67677V4.375Z" stroke="black" stroke-width="0.4"/>
<path d="M9.29295 6.16604C9.12519 6.4784 9.1181 6.61856 9.25751 6.86885C9.3662 7.06107 9.49379 7.18321 9.66864 7.26131C10.1247 7.46754 10.7083 7.31537 10.9375 6.93092C11.0793 6.69465 11.0627 6.30019 10.9068 6.12799L10.8642 6.08194L10.8241 6.2181C10.7674 6.41232 10.7107 6.51044 10.5972 6.61456C10.3846 6.80878 10.0916 6.85283 9.78915 6.73269C9.55523 6.63858 9.46071 6.50843 9.37328 6.14601L9.35202 6.05591L9.29295 6.16604L9.29295 6.16604Z" fill="white"/>
<path fill-rule="evenodd" clip-rule="evenodd" d="M11.1306 2C11.1306 2.57729 10.7743 3 10.2732 3C9.77208 3 9.41887 2.57729 9.41887 2C9.41887 1.41956 9.77208 1 10.2732 1C10.7743 1 11.1306 1.41956 11.1306 2ZM4.29887 2.96845V1.62145L4.80906 2.96845H5.03245L5.53057 1.62145V2.96845H5.83245V1.03155H5.48226L4.92377 2.5205L4.35925 1.03155H4V2.96845H4.29887ZM6.41509 2.96845L6.60528 2.43218H7.31472L7.50491 2.96845H7.82491L7.11245 1.03155H6.81057L6.09811 2.96845H6.41509ZM6.70491 2.14827H7.21208L6.95849 1.43218L6.70491 2.14827ZM8.71547 2.96845V2.19558L9.38868 1.03155H9.0566L8.56755 1.89905L8.07547 1.03155H7.73434L8.40453 2.19558V2.96845H8.71547ZM10.2732 2.70662C9.94717 2.70662 9.73585 2.41009 9.73585 2C9.73585 1.58991 9.94717 1.29338 10.2732 1.29338C10.5992 1.29338 10.8136 1.58991 10.8136 2C10.8136 2.41009 10.5992 2.70662 10.2732 2.70662ZM12.1509 1.32177V2.96845H11.837V1.32177H11.2211V1.03155H12.7668V1.32177H12.1509ZM13.8777 2.96845V1.32177H14.4936V1.03155H12.9479V1.32177H13.5638V2.96845H13.8777ZM16 2.67508V2.96845H14.7894V1.03155H16V1.32177H15.0974V1.83281H15.9155V2.11987H15.0974V2.67508H16Z" fill="#FF2500"/>
<path fill-rule="evenodd" clip-rule="evenodd" d="M16.1103 11.75C16.1103 11.75 15.8978 11.3314 16.4352 11.1248C16.9727 10.9182 17.2353 11.1878 17.4721 11.438C17.7088 11.6882 17.6828 12.4433 17.6828 12.4433L17.0978 13.3789L15.3034 13.7499L14.5883 13.3789L13.75 11.75L13.8126 10.1508C13.8126 10.1508 13.8974 9.53822 13.8974 9.41141C13.8974 9.2846 14.2869 8.30175 14.2869 8.30175L14.6557 7.93639L15.6988 7.38149L16.19 7.13616L16.7998 6.3653L16.7323 5.75163L16.0373 6.63696H15.4486L14.8358 6.89368L14.5883 7.12691L14.2869 7.13616L14.1688 6.89368L14.4979 6.3653L14.995 5.86486L14.7663 5.44166L15.1048 5.28749L15.0397 5.05421L15.4153 5.28749L15.6988 5.05421L15.7528 4.83966L15.1048 4.49237C15.1048 4.49237 15.7388 4.22632 16.0373 4.25409C16.3358 4.28185 16.6174 4.63307 16.6174 4.63307L17.4721 4.49237C17.4721 4.49237 17.2433 5.05421 17.3172 5.05421C17.3912 5.05421 17.8553 5.05421 17.8553 5.05421L17.6828 5.75163H18.3446L17.8553 6.28891L18.2373 6.49836L17.6561 6.89368L18.2373 7.28471L17.697 7.63963L18.0014 8.22821L18.4805 7.93639L18.75 8.30175L18.3446 9.20144L17.6828 9.67093L17.0523 9.82979L16.4352 9.99016L16.19 10.1508L16.0373 9.53522L14.995 10.2501L14.4535 11.371L14.6129 12.3895L14.995 12.911L15.6988 13.163L16.6174 12.9904L17.0978 12.4059L17.2125 11.8094C17.2125 11.8094 16.9342 11.4043 16.7323 11.438C16.5305 11.4716 16.1103 11.75 16.1103 11.75Z" fill="#DFDFDF" stroke="black" stroke-width="0.3"/>
<path d="M15.0542 7.762C15.0542 7.762 16.1661 7.8651 16.4629 7.6291" stroke="black" stroke-width="0.2"/>
<path d="M14.2176 8.48343C14.2176 8.48343 15.3295 8.58654 15.6263 8.35053" stroke="black" stroke-width="0.2"/>
<path d="M14.0309 9.14534C14.0309 9.14534 14.6309 9.24621 14.6903 9.03742" stroke="black" stroke-width="0.2"/>
<path fill-rule="evenodd" clip-rule="evenodd" d="M15.4688 5.9375C15.3825 5.9375 15.3125 5.86754 15.3125 5.78125C15.3125 5.69496 15.3825 5.625 15.4688 5.625C15.555 5.625 15.625 5.69496 15.625 5.78125C15.625 5.86754 15.555 5.9375 15.4688 5.9375Z" fill="black"/>
<path fill-rule="evenodd" clip-rule="evenodd" d="M3.8897 11.75C3.8897 11.75 4.10224 11.3314 3.56479 11.1248C3.02735 10.9182 2.76466 11.1878 2.52793 11.438C2.2912 11.6882 2.31721 12.4433 2.31721 12.4433L2.90218 13.3789L4.69663 13.7499L5.41165 13.3789L6.25 11.75L6.18735 10.1508C6.18735 10.1508 6.10256 9.53822 6.10256 9.41141C6.10256 9.2846 5.71308 8.30175 5.71308 8.30175L5.34427 7.93639L4.30121 7.38149L3.81004 7.13616L3.20018 6.3653L3.26766 5.75163L3.96269 6.63696H4.55141L5.16423 6.89368L5.41165 7.12691L5.71308 7.13616L5.83118 6.89368L5.5021 6.3653L5.00504 5.86486L5.23367 5.44166L4.89523 5.28749L4.96034 5.05421L4.58469 5.28749L4.30121 5.05421L4.2472 4.83966L4.89523 4.49237C4.89523 4.49237 4.26118 4.22632 3.96269 4.25409C3.6642 4.28185 3.38259 4.63307 3.38259 4.63307L2.52793 4.49237C2.52793 4.49237 2.75674 5.05421 2.68279 5.05421C2.60885 5.05421 2.14467 5.05421 2.14467 5.05421L2.31721 5.75163H1.65539L2.14467 6.28891L1.76271 6.49836L2.34386 6.89368L1.76271 7.28471L2.30305 7.63963L1.99862 8.22821L1.51949 7.93639L1.25 8.30175L1.65539 9.20144L2.31721 9.67093L2.9477 9.82979L3.56479 9.99016L3.81004 10.1508L3.96269 9.53522L5.00504 10.2501L5.54651 11.371L5.38711 12.3895L5.00504 12.911L4.30121 13.163L3.38259 12.9904L2.90218 12.4059L2.78746 11.8094C2.78746 11.8094 3.0658 11.4043 3.26766 11.438C3.46951 11.4716 3.8897 11.75 3.8897 11.75Z" fill="#DFDFDF" stroke="black" stroke-width="0.3"/>
<path d="M4.94577 7.762C4.94577 7.762 3.83394 7.8651 3.53707 7.6291" stroke="black" stroke-width="0.2"/>
<path d="M5.78238 8.48343C5.78238 8.48343 4.67055 8.58654 4.37368 8.35053" stroke="black" stroke-width="0.2"/>
<path d="M5.96908 9.14534C5.96908 9.14534 5.36909 9.24621 5.3097 9.03742" stroke="black" stroke-width="0.2"/>
<path fill-rule="evenodd" clip-rule="evenodd" d="M4.53125 5.9375C4.61754 5.9375 4.6875 5.86754 4.6875 5.78125C4.6875 5.69496 4.61754 5.625 4.53125 5.625C4.44496 5.625 4.375 5.69496 4.375 5.78125C4.375 5.86754 4.44496 5.9375 4.53125 5.9375Z" fill="black"/>
</svg>
